assets/icons/heart-stroke-24.svg

<svg width="24" height="24" viewBox="0 0 24 24" fill="none" xmlns="http://www.w3.org/2000/svg">
<path fill-rule="evenodd" clip-rule="evenodd" d="M12.5712 4.81494C14.7263 2.39502 18.2737 2.39502 20.4288 4.81494C22.5237 7.16737 22.5237 10.9387 20.4288 13.2911L14.652 19.7778C13.2008 21.4074 10.7992 21.4074 9.34801 19.7778L3.57123 13.2911C1.47626 10.9387 1.47626 7.16737 3.57123 4.81494C5.7263 2.39502 9.2737 2.39502 11.4288 4.81494C11.4349 4.82178 11.4409 4.8287 11.4468 4.8357L12 5.4924L12.5532 4.8357C12.5591 4.8287 12.5651 4.82178 12.5712 4.81494ZM14.0734 6.13539L13.4173 6.91425C12.6629 7.8097 11.3371 7.8097 10.5827 6.91425L9.92656 6.13539C8.56645 4.61832 6.42158 4.62154 5.06481 6.14506C3.64506 7.73928 3.64506 10.3668 5.06481 11.961L10.8416 18.4477C11.4974 19.1841 12.5026 19.1841 13.1584 18.4477L18.9352 11.961C20.3549 10.3668 20.3549 7.73928 18.9352 6.14506C17.5784 4.62154 15.4335 4.61832 14.0734 6.13539Z" fill="#F2F2F2"/>
</svg>

<svg xmlns="http://www.w3.org/2000/svg" width="24" height="24" viewBox="0 0 24 24"><path fill-rule="evenodd" d="M12.571 4.815c2.155-2.42 5.703-2.42 7.858 0 2.095 2.352 2.095 6.124 0 8.476l-5.777 6.487c-1.451 1.63-3.853 1.63-5.304 0L3.571 13.29c-2.095-2.352-2.095-6.124 0-8.476 2.155-2.42 5.703-2.42 7.858 0a.983.983 0 01.018.02l.553.657.553-.656a.983.983 0 01.018-.021zm1.502 1.32l-.656.78a1.831 1.831 0 01-2.834 0l-.656-.78c-1.36-1.517-3.505-1.513-4.862.01-1.42 1.594-1.42 4.222 0 5.816l5.777 6.487c.655.736 1.66.736 2.316 0l5.777-6.487c1.42-1.594 1.42-4.222 0-5.816-1.357-1.523-3.501-1.527-4.862-.01z"/></svg>
